X:1
T:T001A- Carrick Fergues an Irish Reel (Small Pin Cushion/ Haste
to the Wedding)
S:Gillespie MS, NLS MS.808
N:transcribed by Jack Campin
M:6/8
K:D
B|\
A>FA A>Bd|ede fdB|AFA (B/c/d)F|E>FE E2B|
A>FA ABd|e>de fdB|A>FA (f/g/a)e|fdd d2:|
f|\
dfa afa|bgb afa|dfa agf|efe (Te2f/g/)|
Ta3 Tf3|ede fdB|AFA (f/g/a)e|fdd d2:|

